X:1
T:Title
%%score { ( 1 3 ) | ( 2 4 ) }
L:1/8
Q:1/4=100
M:2/4
K:G
V:1 treble nm="Grand Piano"
V:3 treble 
V:2 bass 
V:4 bass 
V:1
 G3 A | B2 G2 | [EA]2 F2 | G4 | d2 d2 | [Ge]2 Bc | [Gd]2 [Fd]2 | [B,GB]4 | [DGB]2 [DA]2 | %9
w: Richard~Redhead *|||||||||
 [EGc]2 [B,FB]2 | [CEA]2 .[EG]2 | [^DFB]4 | [DGd]3 [EGc] | [DFB]2 [B,G]2 | [CEA]2 [A,DF]2 | %15
w: ||||||
 [B,DG]4 |] %16
w: |
V:2
 [G,B,D]3 [G,CD] | [G,D]2 [G,B,D]2 | [C,C]2 [D,A,D]2 | [G,B,D]4 | [G,B,G]2 [G,B,G]2 | %5
 [C,C]2 [E,G,]2 | [D,A,]2 [D,A,]2 | G,4 | G,2 F,2 | E,2 D,2 | C,2 z A | B,,4 | B,,3 C, | D,2 E,2 | %14
 C,2 D,2 | G,,4 |] %16
V:3
 x4 | x4 | x4 | x4 | x4 | z2 G2 | x4 | x4 | x4 | x4 | x4 | x4 | x4 | x4 | x4 | x4 |] %16
V:4
 x4 | x4 | x4 | x4 | x4 | x4 | x4 | x4 | x4 | x4 | z2 C,2 | x4 | x4 | x4 | x4 | x4 |] %16

